Numix-GalliumOS/16/status/ubuntuone-client-updating.svg

<?xml version="1.0" encoding="UTF-8" standalone="no"?>
<svg
   xmlns:dc="http://purl.org/dc/elements/1.1/"
   xmlns:cc="http://creativecommons.org/ns#"
   xmlns:rdf="http://www.w3.org/1999/02/22-rdf-syntax-ns#"
   xmlns:svg="http://www.w3.org/2000/svg"
   xmlns="http://www.w3.org/2000/svg"
   xmlns:sodipodi="http://sodipodi.sourceforge.net/DTD/sodipodi-0.dtd"
   xmlns:inkscape="http://www.inkscape.org/namespaces/inkscape"
   width="16"
   height="16"
   viewBox="0 0 16 16"
   id="svg3001"
   version="1.1"
   inkscape:version="0.91 r"
   sodipodi:docname="ubuntuone-client-updating.svg">
  <metadata
     id="metadata3011">
    <rdf:RDF>
      <cc:Work
         rdf:about="">
        <dc:format>image/svg+xml</dc:format>
        <dc:type
           rdf:resource="http://purl.org/dc/dcmitype/StillImage" />
      </cc:Work>
    </rdf:RDF>
  </metadata>
  <defs
     id="defs3009" />
  <sodipodi:namedview
     pagecolor="#ffffff"
     bordercolor="#666666"
     borderopacity="1"
     objecttolerance="10"
     gridtolerance="10"
     guidetolerance="10"
     inkscape:pageopacity="0"
     inkscape:pageshadow="2"
     inkscape:window-width="1280"
     inkscape:window-height="998"
     id="namedview3007"
     showgrid="false"
     inkscape:zoom="14.75"
     inkscape:cx="8"
     inkscape:cy="8"
     inkscape:window-x="0"
     inkscape:window-y="0"
     inkscape:window-maximized="1"
     inkscape:current-layer="svg3001" />
  <path
     style="fill:#ececec;fill-opacity:1"
     d="M 8 3.910156 C 5.742188 3.910156 3.910156 5.742188 3.910156 8 C 3.910156 8.019531 3.910156 8.035156 3.910156 8.050781 C 3.777344 8.023438 3.640625 8 3.5 8 C 2.371094 8 1.453125 8.914062 1.453125 10.046875 C 1.453125 11.175781 2.371094 12.089844 3.5 12.089844 L 11.683594 12.089844 C 13.261719 12.089844 14.546875 10.808594 14.546875 9.226562 C 14.546875 7.664062 13.289062 6.390625 11.734375 6.363281 C 11.097656 4.925781 9.671875 3.910156 8 3.910156 Z M 7.820312 5.546875 C 7.847656 5.542969 7.871094 5.542969 7.898438 5.546875 C 8.152344 5.511719 8.40625 5.59375 8.589844 5.777344 L 10.222656 7.410156 C 10.464844 7.644531 10.539062 8.003906 10.410156 8.316406 C 10.28125 8.625 9.972656 8.824219 9.636719 8.816406 L 8.816406 8.816406 L 8.816406 9.636719 C 8.824219 9.929688 8.667969 10.207031 8.414062 10.355469 C 8.15625 10.503906 7.84375 10.503906 7.585938 10.355469 C 7.332031 10.207031 7.175781 9.929688 7.183594 9.636719 L 7.183594 8.816406 L 6.363281 8.816406 C 6.027344 8.824219 5.71875 8.625 5.589844 8.316406 C 5.460938 8.003906 5.535156 7.644531 5.777344 7.410156 L 7.410156 5.777344 C 7.523438 5.660156 7.664062 5.582031 7.820312 5.546875 Z "
     id="path3005" />
</svg>

<svg xmlns="http://www.w3.org/2000/svg" viewBox="0 0 16 16">
 <path d="m 8 3.91 c -2.258 0 -4.09 1.832 -4.09 4.09 c 0 0.02 0 0.035 0 0.051 c -0.133 -0.027 -0.27 -0.051 -0.41 -0.051 c -1.129 0 -2.047 0.914 -2.047 2.047 c 0 1.129 0.918 2.043 2.047 2.043 l 8.184 0 c 1.578 0 2.863 -1.281 2.863 -2.863 c 0 -1.562 -1.258 -2.836 -2.813 -2.863 c -0.637 -1.438 -2.063 -2.453 -3.734 -2.453 m -0.18 1.637 c 0.027 -0.004 0.051 -0.004 0.078 0 c 0.254 -0.035 0.508 0.047 0.691 0.23 l 1.633 1.633 c 0.242 0.234 0.316 0.594 0.188 0.906 c -0.129 0.309 -0.438 0.508 -0.773 0.5 l -0.82 0 l 0 0.82 c 0.008 0.293 -0.148 0.57 -0.402 0.719 c -0.258 0.148 -0.57 0.148 -0.828 0 c -0.254 -0.148 -0.41 -0.426 -0.402 -0.719 l 0 -0.82 l -0.82 0 c -0.336 0.008 -0.645 -0.191 -0.773 -0.5 c -0.129 -0.313 -0.055 -0.672 0.188 -0.906 l 1.633 -1.633 c 0.113 -0.117 0.254 -0.195 0.41 -0.23 Z" style="fill:#ececec;fill-opacity:1"/>
</svg>
